X: 10165
T: Dinkey's
R: reel
M: 4/4
K: Amixolydian
ed|c2 (3BcB ABcd|egfd edBa|aA~A2 aAbA|aA~A2 gfed|
c2 (3BcB ABcd|egfd edBa|gfgd efed|1 c2(3BcB A2:|2 c2(3BcB Aefg||
aA~A2 aAbA|aA~A2 agef|gB~B2 gBaB|gB~B2 gfeg|
aA~A2 aAbA|aA~A2 agef|gfgd efed|c2(3BcB Aefg|
aA~A2 aAbA|aA~A2 agef|gB~B2 gBaB|gB~B2 gfeg|
aA~A2 gA~A2|fA~A2 edef|gfgd efed|c2(3BcB A2||

